localPackages/DesignSystem/Sources/DesignSystem/Resources/Assets.xcassets/IconSet/ic-globe.imageset/ic-globe.svg

<svg width="24" height="24" viewBox="0 0 24 24" fill="none" xmlns="http://www.w3.org/2000/svg">
<g id="ic-globe">
<path id="Icon" fill-rule="evenodd" clip-rule="evenodd" d="M10.6817 3.09587C10.8645 3.06903 11.0492 3.04769 11.2355 3.03202L11.2355 11.2518L6.77331 11.2603C6.95804 8.28181 8.26082 5.35439 10.6817 3.09587ZM5.27057 11.2632C5.41069 8.70672 6.28141 6.18013 7.88274 3.99487C5.18806 5.38362 3.28509 8.09301 3.02938 11.2675L5.27057 11.2632ZM3.03226 12.7675L5.27213 12.7632C5.4171 15.311 6.28784 17.828 7.88433 20.006C5.19871 18.6225 3.29912 15.9275 3.03226 12.7675ZM6.77471 12.7603L11.2355 12.7518L11.2354 20.968C11.0497 20.9524 10.8655 20.9311 10.6832 20.9044C8.26739 18.651 6.96457 15.7318 6.77471 12.7603ZM12.7355 12.749L12.7354 20.9704C12.9468 20.9533 13.1561 20.9289 13.3631 20.8974C15.7792 18.6399 17.0798 15.7156 17.2647 12.7403L12.7355 12.749ZM18.7674 12.7375C18.6277 15.2814 17.7646 17.7957 16.178 19.9736C18.8403 18.5757 20.7165 15.8835 20.9706 12.7333L18.7674 12.7375ZM20.9678 11.2333L18.766 11.2375C18.6221 8.70201 17.7593 6.19702 16.1778 4.02638C18.8308 5.41928 20.7032 8.09737 20.9678 11.2333ZM17.2635 11.2403L12.7355 11.249L12.7355 3.02962C12.9467 3.0467 13.1559 3.07108 13.3628 3.1025C15.7739 5.35498 17.0742 8.27156 17.2635 11.2403ZM10.0097 1.68837L10.0064 1.68461L10 1.69024C5.15757 2.6241 1.5 6.88491 1.5 12C1.5 17.1157 5.15843 21.3769 10.0017 22.3101L10.0066 22.3144L10.0091 22.3115C10.6537 22.4352 11.3193 22.5 12 22.5C12.692 22.5 13.3683 22.4331 14.0229 22.3053L14.0315 22.3151L14.0483 22.3003C18.8668 21.3475 22.5 17.098 22.5 12C22.5 6.9018 18.8665 2.65224 14.0479 1.6996L14.0316 1.68534L14.0234 1.69478C13.3686 1.56697 12.6921 1.5 12 1.5C11.3195 1.5 10.6542 1.56473 10.0097 1.68837Z" fill="#0F0F0F"/>
</g>
</svg>

<svg xmlns="http://www.w3.org/2000/svg" width="24" height="24" viewBox="0 0 24 24">
  <g class="ic-globe">
    <path fill-rule="evenodd" d="M10.682 3.096c.182-.027.367-.048.553-.064v8.22l-4.462.008c.185-2.978 1.488-5.906 3.909-8.164ZM5.27 11.263a13.53 13.53 0 0 1 2.612-7.268 9.003 9.003 0 0 0-4.854 7.272l2.242-.004Zm-2.239 1.505 2.24-.005a13.531 13.531 0 0 0 2.612 7.243 9.004 9.004 0 0 1-4.852-7.239Zm3.743-.008 4.46-.008v8.216a9.024 9.024 0 0 1-.552-.064c-2.416-2.253-3.718-5.172-3.908-8.144Zm5.96-.011v8.221a8.99 8.99 0 0 0 .628-.073c2.416-2.257 3.717-5.181 3.902-8.157l-4.53.009Zm6.032-.011a13.529 13.529 0 0 1-2.589 7.236 9.003 9.003 0 0 0 4.793-7.24l-2.204.004Zm2.2-1.505-2.201.005a13.528 13.528 0 0 0-2.588-7.212 9.003 9.003 0 0 1 4.79 7.207Zm-3.703.007-4.528.009v-8.22c.21.018.42.042.627.074 2.41 2.252 3.711 5.169 3.9 8.137ZM10.01 1.688l-.004-.003L10 1.69C5.158 2.624 1.5 6.885 1.5 12c0 5.116 3.658 9.377 8.502 10.31l.005.004.002-.003a10.557 10.557 0 0 0 4.014-.006l.008.01.017-.015c4.819-.953 8.452-5.202 8.452-10.3 0-5.098-3.634-9.348-8.452-10.3l-.016-.015-.009.01a10.554 10.554 0 0 0-4.013-.007Z" class="Icon"/>
  </g>
</svg>
